X:201
T: Osterlied des 15. Jahrhunderts
N: A0553D
O: Europa, Mitteleuropa, Deutschland
N: Strassb. Gsgb 1560.
R: Romanze, Ballade, Lied, religioeses Lied
M: 4/2
L: 1/2
K: D
 |  |  | D2DA | EG=FE | D2
D2 | AB=cB | A^GA2 |
A2dB | =cAG=F | E2
=F2 | DAEG | =FED2 |
D2=CD | EA=FE | D4

@@@ Tune index: 514
